src/pictures/icons/scanIcon.svg

<svg width="22" height="22" fill="none" xmlns="http://www.w3.org/2000/svg"><path d="M1 8V6c0-3 2-5 5-5h10c3 0 5 2 5 5v2M1 14v2c0 3 2 5 5 5h10c3 0 5-2 5-5v-2M1 11h20" stroke="#292D32" stroke-width="1.5" stroke-miterlimit="10" stroke-linecap="round" stroke-linejoin="round"/></svg>

<svg width="22" height="22" viewBox="0 0 22 22" fill="none" xmlns="http://www.w3.org/2000/svg">
<path d="M1 8V6C1 3 3 1 6 1H16C19 1 21 3 21 6V8" stroke="#292D32" stroke-width="1.5" stroke-miterlimit="10" stroke-linecap="round" stroke-linejoin="round"/>
<path d="M1 14V16C1 19 3 21 6 21H16C19 21 21 19 21 16V14" stroke="#292D32" stroke-width="1.5" stroke-miterlimit="10" stroke-linecap="round" stroke-linejoin="round"/>
<path d="M1 11H21" stroke="#292D32" stroke-width="1.5" stroke-miterlimit="10" stroke-linecap="round" stroke-linejoin="round"/>
</svg>
